src/assets/imgs/icons/signup/ico_refresh.svg

<?xml version="1.0" encoding="UTF-8"?>
<svg width="12px" height="12px" viewBox="0 0 12 12" version="1.1" xmlns="http://www.w3.org/2000/svg" xmlns:xlink="http://www.w3.org/1999/xlink">
    <!-- Generator: Sketch 50.2 (55047) - http://www.bohemiancoding.com/sketch -->
    <title>ico_refresh</title>
    <desc>Created with Sketch.</desc>
    <defs></defs>
    <g id="Page-1" stroke="none" stroke-width="1" fill="none" fill-rule="evenodd">
        <g id="00A_Export" transform="translate(-187.000000, -126.000000)">
            <g id="ico_refresh" transform="translate(187.000000, 126.000000)">
                <path d="M11.5082048,5.50810642 C11.7796757,5.50810642 12,5.72843068 12,5.99990164 C12,9.30869986 9.30889658,11.9998033 6.00009836,11.9998033 C4.35258438,11.9998033 2.79556073,11.3142408 1.67230045,10.141801 L1.67230045,10.8194948 C1.67230045,11.0909657 1.4519762,11.31129 1.18050524,11.31129 C0.909034278,11.31129 0.688710021,11.0909657 0.688710021,10.8194948 L0.688710021,8.75395485 C0.688710021,8.4815003 0.909034278,8.26215964 1.18050524,8.26215964 L3.24604515,8.26215964 C3.51751611,8.26215964 3.73784036,8.4815003 3.73784036,8.75395485 C3.73784036,9.02542581 3.51751611,9.24575007 3.24604515,9.24575007 L2.18376748,9.24575007 C3.13194866,10.3591744 4.52274553,11.0162128 6.00009836,11.0162128 C8.76595466,11.0162128 11.0164096,8.76575794 11.0164096,5.99990164 C11.0164096,5.72843068 11.2367338,5.50810642 11.5082048,5.50810642 Z M0.983590433,5.99990164 C0.983590433,6.2713726 0.763266176,6.49169686 0.491795216,6.49169686 C0.220324257,6.49169686 -1.13686838e-13,6.2713726 -1.13686838e-13,5.99990164 C-1.13686838e-13,2.69110342 2.69110342,0 5.99990164,0 C7.64741562,0 9.20443927,0.685562532 10.3276995,1.85701874 L10.3276995,1.18030852 C10.3276995,0.90883756 10.5480238,0.688513303 10.8194948,0.688513303 C11.0909657,0.688513303 11.31129,0.90883756 11.31129,1.18030852 L11.31129,3.24584843 C11.31129,3.51830298 11.0909657,3.73764365 10.8194948,3.73764365 L8.75395485,3.73764365 C8.48248389,3.73764365 8.26215964,3.51830298 8.26215964,3.24584843 C8.26215964,2.97437747 8.48248389,2.75405321 8.75395485,2.75405321 L9.81623252,2.75405321 C8.86805134,1.63964525 7.47725447,0.983590433 5.99990164,0.983590433 C3.23404534,0.983590433 0.983590433,3.23404534 0.983590433,5.99990164 Z" id="Combined-Shape" fill="#FF8737"></path>
                <rect id="Overlay" fill="#FFFFFF" opacity="0" x="0" y="0" width="12" height="12"></rect>
            </g>
        </g>
    </g>
</svg>

<?xml version="1.0" encoding="utf-8"?>
<!-- Generator: Adobe Illustrator 23.0.1, SVG Export Plug-In . SVG Version: 6.00 Build 0)  -->
<svg version="1.1" id="图层_1" xmlns="http://www.w3.org/2000/svg" xmlns:xlink="http://www.w3.org/1999/xlink" x="0px" y="0px"
	 viewBox="0 0 12 12" style="enable-background:new 0 0 12 12;" xml:space="preserve">
<style type="text/css">
	.st0{fill-rule:evenodd;clip-rule:evenodd;fill:#ECBA6F;}
</style>
<title>ico_refresh</title>
<desc>Created with Sketch.</desc>
<path id="Combined-Shape" class="st0" d="M11.5,5.5C11.8,5.5,12,5.7,12,6c0,3.3-2.7,6-6,6c-1.6,0-3.2-0.7-4.3-1.9v0.7
	c0,0.3-0.2,0.5-0.5,0.5s-0.5-0.2-0.5-0.5V8.8c0-0.3,0.2-0.5,0.5-0.5h2.1c0.3,0,0.5,0.2,0.5,0.5c0,0.3-0.2,0.5-0.5,0.5H2.2
	C3.1,10.4,4.5,11,6,11c2.8,0,5-2.3,5-5C11,5.7,11.2,5.5,11.5,5.5z M1,6c0,0.3-0.2,0.5-0.5,0.5S0,6.3,0,6c0-3.3,2.7-6,6-6
	c1.6,0,3.2,0.7,4.3,1.9V1.2c0-0.3,0.2-0.5,0.5-0.5c0.3,0,0.5,0.2,0.5,0.5v2.1c0,0.3-0.2,0.5-0.5,0.5H8.8c-0.3,0-0.5-0.2-0.5-0.5
	c0-0.3,0.2-0.5,0.5-0.5h1.1C8.9,1.6,7.5,1,6,1C3.2,1,1,3.2,1,6z"/>
</svg>
